X:1
T:Sparsa ovis
T:Daniel Friderici
T:Source : Bicinia sacra---Rostock---J.Richelius---1642. Editor : André Vierendeels (09/07/17).
T:Notes : Original clefs : C1, C1 Editorial accidentals above the staff
T:Sparsa ovis
T:©
T:©
C:Daniel Friderici
Z:©
%%score [ 1 2 ]
L:1/8
Q:1/4=120
M:2/2
K:F
V:1 treble nm="Soprano 1" snm="S 1"
V:2 treble nm="Soprano 2" snm="S 2"
V:1
 dcdc BABA | GFGF _EDED | CB,CD _EDED | C4 D2 d2- | d2 e2 f3 e | d2 c4 B2 | A2 D2 d4 | G2 G2 c4 | %8
w: Spar- * * * * * * *|||* sa, spar-|* sa o- vis|in- ven- ta|est, et drach-|ma, et drach-|
 A2 F2 B4 | G4 z2 c2 | dcdc B2 G2 | AF G4 ^F2 |[M:2/4] G4 :: z2 G2 |[M:2/2] B4 A2 B2 | c4 d2 A2 | %16
w: ma, et drach-|ma et|pro- * * * * di-|gus _ hae- *|res:|Con-|ver- sis, con-|ver- sis re-|
 B3 A B2 c2 | d4 z2 A2 | B3 A B2 c2 | d4 z4 | z2 d3 d e2 | f3 e d2 cB | A2 G4 ^F2 | G8 :| %24
w: di- * * *|tus, con-|ver- sis re- di-|tus,|sem- per ad|a- * * * *|* stra pa-|tet.|
V:2
 z4 dcdc | BABA GFGF | _EDED CB,CD | _E4 D4 | d2 c2 B3 c | B2 A4 G2 | ^F4 z2 D2 | d4 A2 F2 | %8
w: Spar- * * *|||* sa,|spar- sa o- vis|in- ven- ta|est, et|drach- ma, et|
 c4 G2 G2 | B4 F2 A2 | BABc d3 d | cABG A2 A2 |[M:2/4] G4 :: z2 B2 |[M:2/2] G4 ^F2 G2 | _E4 D4 | %16
w: drach- ma, et|drach- ma, et|pro- * * * * di-|gus _ _ _ _ hae-|res:|Con-|ver- sis, con-|ver- sis,|
 z4 z2 A2 | B3 A B2 c2 | d4 z2 A2 | B3 A B2 c2 | d2 B3 B c2 | dcde f2 _ed | c2 B2 A4 | G8 :| %24
w: con|ver- sis re- di-|tus, con-|ver- sis re- di-|tus, sem- per ad|a- * * * * * *|* stra pa-|tet.|

